Numix-Light/16/status/indicator-keyboard-Pl-8.svg

<?xml version="1.0" encoding="UTF-8" standalone="no"?>
<svg
   xmlns:dc="http://purl.org/dc/elements/1.1/"
   xmlns:cc="http://creativecommons.org/ns#"
   xmlns:rdf="http://www.w3.org/1999/02/22-rdf-syntax-ns#"
   xmlns:svg="http://www.w3.org/2000/svg"
   xmlns="http://www.w3.org/2000/svg"
   xmlns:sodipodi="http://sodipodi.sourceforge.net/DTD/sodipodi-0.dtd"
   xmlns:inkscape="http://www.inkscape.org/namespaces/inkscape"
   viewBox="0 0 16 16"
   id="svg2"
   version="1.1"
   inkscape:version="0.91 r13725"
   sodipodi:docname="indicator-keyboard-Pl-8.svg">
  <metadata
     id="metadata14">
    <rdf:RDF>
      <cc:Work
         rdf:about="">
        <dc:format>image/svg+xml</dc:format>
        <dc:type
           rdf:resource="http://purl.org/dc/dcmitype/StillImage" />
      </cc:Work>
    </rdf:RDF>
  </metadata>
  <defs
     id="defs12" />
  <sodipodi:namedview
     pagecolor="#ffffff"
     bordercolor="#666666"
     borderopacity="1"
     objecttolerance="10"
     gridtolerance="10"
     guidetolerance="10"
     inkscape:pageopacity="0"
     inkscape:pageshadow="2"
     inkscape:window-width="640"
     inkscape:window-height="480"
     id="namedview10"
     showgrid="false"
     inkscape:zoom="14.75"
     inkscape:cx="8"
     inkscape:cy="8"
     inkscape:window-x="65"
     inkscape:window-y="24"
     inkscape:window-maximized="0"
     inkscape:current-layer="svg2" />
  <path
     style="fill:#353535;fill-opacity:1"
     d="M 1.5996094 0 C 0.71320937 2.9605947e-16 0 0.71320937 0 1.5996094 L 0 14.400391 C 2.9605947e-16 15.286791 0.71320937 16 1.5996094 16 L 14.400391 16 C 15.286791 16 16 15.286791 16 14.400391 L 16 1.5996094 C 16 0.71320937 15.286791 0 14.400391 0 L 1.5996094 0 z M 9 4.1113281 L 9 9.9628906 C 9 10.106891 9.0111563 10.2225 9.0351562 10.3125 C 9.0651562 10.3965 9.1081094 10.465531 9.1621094 10.519531 C 9.2161094 10.567531 9.2851406 10.604906 9.3691406 10.628906 C 9.4591406 10.652906 9.5635938 10.673406 9.6835938 10.691406 L 9.6035156 11.177734 C 9.4055156 11.171734 9.2320312 11.143703 9.0820312 11.095703 C 8.9380312 11.053703 8.8148906 10.988438 8.7128906 10.898438 C 8.6168906 10.802437 8.5403281 10.681109 8.4863281 10.537109 C 8.4383281 10.387109 8.4160156 10.202469 8.4160156 9.9804688 L 8.4160156 4.2207031 L 9 4.1113281 z M 4.7089844 4.8046875 C 5.5909844 4.8046875 6.2476875 4.9725937 6.6796875 5.3085938 C 7.1116875 5.6445937 7.328125 6.1222344 7.328125 6.7402344 C 7.328125 7.0942344 7.2646719 7.3964375 7.1386719 7.6484375 C 7.0126719 7.8944375 6.8336094 8.0959531 6.5996094 8.2519531 C 6.3656094 8.4019531 6.076375 8.5139375 5.734375 8.5859375 C 5.398375 8.6519375 5.0177969 8.6835937 4.5917969 8.6835938 L 3.7460938 8.6835938 L 3.7460938 11.095703 L 3.1347656 11.095703 L 3.1347656 4.9765625 C 3.3507656 4.9165625 3.602625 4.8736094 3.890625 4.8496094 C 4.184625 4.8196094 4.4569844 4.8046875 4.7089844 4.8046875 z M 4.7363281 5.3359375 C 4.5083281 5.3359375 4.3123906 5.3452813 4.1503906 5.3632812 C 3.9943906 5.3752813 3.8600938 5.3864375 3.7460938 5.3984375 L 3.7460938 8.1523438 L 4.5195312 8.1523438 C 4.8495312 8.1523438 5.1461563 8.1356094 5.4101562 8.0996094 C 5.6801562 8.0576094 5.9097031 7.9848125 6.0957031 7.8828125 C 6.2877031 7.7748125 6.4331562 7.6274062 6.5351562 7.4414062 C 6.6371562 7.2554063 6.6894531 7.0184687 6.6894531 6.7304688 C 6.6894531 6.4544688 6.6315781 6.226875 6.5175781 6.046875 C 6.4095781 5.866875 6.2621719 5.7250469 6.0761719 5.6230469 C 5.8961719 5.5150469 5.6890781 5.4404375 5.4550781 5.3984375 C 5.2210781 5.3564375 4.9823281 5.3359375 4.7363281 5.3359375 z M 11.601562 8.7539062 C 11.804362 8.7539062 11.980706 8.7852563 12.128906 8.8476562 C 12.277106 8.9061562 12.398588 8.9845313 12.492188 9.0820312 C 12.589687 9.1795312 12.660225 9.2912156 12.703125 9.4160156 C 12.749925 9.5408156 12.773437 9.6681812 12.773438 9.8007812 C 12.773438 9.9294812 12.753844 10.049003 12.714844 10.158203 C 12.675844 10.263503 12.6249 10.361472 12.5625 10.451172 C 12.5001 10.536972 12.429562 10.613388 12.351562 10.679688 C 12.273562 10.745988 12.197147 10.800856 12.123047 10.847656 C 12.396047 10.964656 12.588066 11.111609 12.697266 11.287109 C 12.810366 11.462609 12.865234 11.64875 12.865234 11.84375 C 12.865234 12.01145 12.835837 12.164288 12.773438 12.304688 C 12.714937 12.445088 12.630684 12.566569 12.521484 12.667969 C 12.412284 12.765469 12.279047 12.841884 12.123047 12.896484 C 11.967047 12.954984 11.792662 12.984375 11.601562 12.984375 C 11.410462 12.984375 11.238031 12.956944 11.082031 12.902344 C 10.929931 12.847744 10.796694 12.771328 10.683594 12.673828 C 10.574394 12.572428 10.488181 12.454866 10.425781 12.322266 C 10.367281 12.185766 10.339844 12.038806 10.339844 11.878906 C 10.339844 11.742406 10.357484 11.618966 10.396484 11.509766 C 10.435484 11.396666 10.486428 11.296737 10.548828 11.210938 C 10.615128 11.121237 10.689584 11.042863 10.771484 10.976562 C 10.857284 10.906363 10.947416 10.845622 11.041016 10.794922 C 10.803116 10.677922 10.640488 10.540759 10.554688 10.380859 C 10.468888 10.220959 10.425781 10.046575 10.425781 9.859375 C 10.425781 9.691675 10.455172 9.5407968 10.513672 9.4042969 C 10.572172 9.2677969 10.652506 9.1521937 10.753906 9.0585938 C 10.859206 8.9610938 10.984606 8.8866375 11.128906 8.8359375 C 11.273206 8.7813375 11.429962 8.7539062 11.601562 8.7539062 z M 11.601562 9.0820312 C 11.472862 9.0820312 11.361172 9.101625 11.263672 9.140625 C 11.166172 9.179625 11.083878 9.2344875 11.017578 9.3046875 C 10.955178 9.3709875 10.906194 9.4493625 10.871094 9.5390625 C 10.839894 9.6287624 10.824219 9.7208594 10.824219 9.8183594 C 10.824219 9.9275594 10.835975 10.027487 10.859375 10.117188 C 10.886675 10.206888 10.935659 10.289181 11.005859 10.363281 C 11.076059 10.433481 11.174028 10.5001 11.298828 10.5625 C 11.423628 10.621 11.586263 10.677822 11.789062 10.732422 C 11.968463 10.631022 12.111497 10.505622 12.216797 10.357422 C 12.322097 10.209222 12.375 10.023081 12.375 9.8007812 C 12.375 9.7110812 12.359325 9.6248624 12.328125 9.5390625 C 12.300825 9.4532625 12.255759 9.3768469 12.193359 9.3105469 C 12.134859 9.2403469 12.056484 9.1854844 11.958984 9.1464844 C 11.861484 9.1035844 11.741962 9.0820312 11.601562 9.0820312 z M 11.369141 10.929688 C 11.170241 11.023287 11.01545 11.150647 10.90625 11.310547 C 10.79705 11.466547 10.742187 11.656606 10.742188 11.878906 C 10.742188 11.988106 10.759822 12.088041 10.794922 12.181641 C 10.830022 12.275241 10.882925 12.357534 10.953125 12.427734 C 11.027225 12.497934 11.117356 12.554756 11.222656 12.597656 C 11.331856 12.636656 11.457263 12.65625 11.601562 12.65625 C 11.745862 12.65625 11.871263 12.636656 11.976562 12.597656 C 12.085762 12.554756 12.175894 12.497934 12.246094 12.427734 C 12.320194 12.357534 12.375056 12.275241 12.410156 12.181641 C 12.445256 12.088041 12.462891 11.988106 12.462891 11.878906 C 12.462891 11.711206 12.429581 11.57405 12.363281 11.46875 C 12.300881 11.36345 12.216628 11.277238 12.111328 11.210938 C 12.009928 11.144638 11.892366 11.091734 11.759766 11.052734 C 11.631066 11.013734 11.501741 10.972587 11.369141 10.929688 z "
     id="path4" />
</svg>

<svg xmlns="http://www.w3.org/2000/svg" viewBox="0 0 16 16">
 <path d="m 1.6 0 c -0.886 0 -1.6 0.713 -1.6 1.6 l 0 12.801 c 0 0.886 0.713 1.6 1.6 1.6 l 12.801 0 c 0.886 0 1.6 -0.713 1.6 -1.6 l 0 -12.801 c 0 -0.886 -0.713 -1.6 -1.6 -1.6 l -12.801 0 z m 7.4 4.111 l 0 5.852 c 0 0.144 0.011 0.26 0.035 0.35 c 0.03 0.084 0.073 0.153 0.127 0.207 c 0.054 0.048 0.123 0.085 0.207 0.109 c 0.09 0.024 0.194 0.044 0.314 0.063 l -0.08 0.486 c -0.198 -0.006 -0.371 -0.034 -0.521 -0.082 c -0.144 -0.042 -0.267 -0.107 -0.369 -0.197 c -0.096 -0.096 -0.173 -0.217 -0.227 -0.361 c -0.048 -0.15 -0.07 -0.335 -0.07 -0.557 l 0 -5.76 l 0.584 -0.109 z m -4.291 0.693 c 0.882 0 1.539 0.168 1.971 0.504 c 0.432 0.336 0.648 0.814 0.648 1.432 c 0 0.354 -0.063 0.656 -0.189 0.908 c -0.126 0.246 -0.305 0.448 -0.539 0.604 c -0.234 0.15 -0.523 0.262 -0.865 0.334 c -0.336 0.066 -0.717 0.098 -1.143 0.098 l -0.846 0 l 0 2.412 l -0.611 0 l 0 -6.119 c 0.216 -0.06 0.468 -0.103 0.756 -0.127 c 0.294 -0.03 0.566 -0.045 0.818 -0.045 z m 0.027 0.531 c -0.228 0 -0.424 0.009 -0.586 0.027 c -0.156 0.012 -0.29 0.023 -0.404 0.035 l 0 2.754 l 0.773 0 c 0.33 0 0.627 -0.017 0.891 -0.053 c 0.27 -0.042 0.5 -0.115 0.686 -0.217 c 0.192 -0.108 0.337 -0.255 0.439 -0.441 c 0.102 -0.186 0.154 -0.423 0.154 -0.711 c 0 -0.276 -0.058 -0.504 -0.172 -0.684 c -0.108 -0.18 -0.255 -0.322 -0.441 -0.424 c -0.18 -0.108 -0.387 -0.183 -0.621 -0.225 c -0.234 -0.042 -0.473 -0.063 -0.719 -0.063 z m 6.865 3.418 c 0.203 0 0.379 0.031 0.527 0.094 c 0.148 0.059 0.27 0.137 0.363 0.234 c 0.097 0.098 0.168 0.209 0.211 0.334 c 0.047 0.125 0.07 0.252 0.07 0.385 c 0 0.129 -0.02 0.248 -0.059 0.357 c -0.039 0.105 -0.09 0.203 -0.152 0.293 c -0.062 0.086 -0.133 0.162 -0.211 0.229 c -0.078 0.066 -0.154 0.121 -0.229 0.168 c 0.273 0.117 0.465 0.264 0.574 0.439 c 0.113 0.176 0.168 0.362 0.168 0.557 c 0 0.168 -0.029 0.321 -0.092 0.461 c -0.059 0.14 -0.143 0.262 -0.252 0.363 c -0.109 0.098 -0.242 0.174 -0.398 0.229 c -0.156 0.059 -0.33 0.088 -0.521 0.088 c -0.191 0 -0.364 -0.027 -0.52 -0.082 c -0.152 -0.055 -0.285 -0.131 -0.398 -0.229 c -0.109 -0.101 -0.195 -0.219 -0.258 -0.352 c -0.059 -0.137 -0.086 -0.283 -0.086 -0.443 c 0 -0.136 0.018 -0.26 0.057 -0.369 c 0.039 -0.113 0.09 -0.213 0.152 -0.299 c 0.066 -0.09 0.141 -0.168 0.223 -0.234 c 0.086 -0.07 0.176 -0.131 0.27 -0.182 c -0.238 -0.117 -0.401 -0.254 -0.486 -0.414 c -0.086 -0.16 -0.129 -0.334 -0.129 -0.521 c 0 -0.168 0.029 -0.319 0.088 -0.455 c 0.059 -0.136 0.139 -0.252 0.24 -0.346 c 0.105 -0.098 0.231 -0.172 0.375 -0.223 c 0.144 -0.055 0.301 -0.082 0.473 -0.082 z m 0 0.328 c -0.129 0 -0.24 0.02 -0.338 0.059 c -0.098 0.039 -0.18 0.094 -0.246 0.164 c -0.062 0.066 -0.111 0.145 -0.146 0.234 c -0.031 0.09 -0.047 0.182 -0.047 0.279 c 0 0.109 0.012 0.209 0.035 0.299 c 0.027 0.09 0.076 0.172 0.146 0.246 c 0.07 0.07 0.168 0.137 0.293 0.199 c 0.125 0.059 0.287 0.115 0.49 0.17 c 0.179 -0.101 0.322 -0.227 0.428 -0.375 c 0.105 -0.148 0.158 -0.334 0.158 -0.557 c 0 -0.09 -0.016 -0.176 -0.047 -0.262 c -0.027 -0.086 -0.072 -0.162 -0.135 -0.229 c -0.058 -0.07 -0.137 -0.125 -0.234 -0.164 c -0.097 -0.043 -0.217 -0.064 -0.357 -0.064 z m -0.232 1.848 c -0.199 0.094 -0.354 0.221 -0.463 0.381 c -0.109 0.156 -0.164 0.346 -0.164 0.568 c 0 0.109 0.018 0.209 0.053 0.303 c 0.035 0.094 0.088 0.176 0.158 0.246 c 0.074 0.07 0.164 0.127 0.27 0.17 c 0.109 0.039 0.235 0.059 0.379 0.059 c 0.144 0 0.27 -0.02 0.375 -0.059 c 0.109 -0.043 0.199 -0.1 0.27 -0.17 c 0.074 -0.07 0.129 -0.152 0.164 -0.246 c 0.035 -0.094 0.053 -0.194 0.053 -0.303 c 0 -0.168 -0.033 -0.305 -0.1 -0.41 c -0.062 -0.105 -0.147 -0.192 -0.252 -0.258 c -0.101 -0.066 -0.219 -0.119 -0.352 -0.158 c -0.129 -0.039 -0.258 -0.08 -0.391 -0.123 z" style="fill:#353535;fill-opacity:1"/>
</svg>
